Newaita-dark/actions/24/games-solve.svg

<svg height="24" viewBox="0 0 24 24" width="24" xmlns="http://www.w3.org/2000/svg"><g fill="#e0e0e0"><path d="m19.992188 2.375c-.195313-.007812-.375.089844-.46875.257812l-8.226563 14.421876-7.335937-7.335938c-.199219-.199219-.527344-.199219-.726563 0l-.746094.746094c-.199219.199218-.199219.523437 0 .726562l8.808594 8.804688c.238281.242187.640625.1875.808594-.109375l9.242187-16.183594c.136719-.246094.058594-.554687-.183594-.699219l-.929687-.554687c-.074219-.046875-.15625-.070313-.242187-.074219zm0 0"/><path d="m11.410156 12.09375c-2.746094 0-4.960937 2.214844-4.960937 4.960938 0 2.75 2.214843 4.964843 4.960937 4.964843 2.75 0 4.960938-2.214843 4.960938-4.964843 0-2.746094-2.210938-4.960938-4.960938-4.960938zm0 .992188c2.199219 0 3.96875 1.769531 3.96875 3.96875 0 2.199218-1.769531 3.972656-3.96875 3.972656-2.199218 0-3.96875-1.773438-3.96875-3.972656 0-2.199219 1.769532-3.96875 3.96875-3.96875zm0 0"/></g></svg>

<?xml version="1.0" encoding="UTF-8"?>
<svg xmlns="http://www.w3.org/2000/svg" xmlns:xlink="http://www.w3.org/1999/xlink" width="24px" height="24px" viewBox="0 0 24 24" version="1.1">
<g id="surface1">
<path style=" stroke:none;fill-rule:nonzero;fill:rgb(87.843138%,87.843138%,87.843138%);fill-opacity:1;" d="M 19.992188 2.375 C 19.796875 2.367188 19.617188 2.464844 19.523438 2.632812 L 11.296875 17.054688 L 3.960938 9.71875 C 3.761719 9.519531 3.433594 9.519531 3.234375 9.71875 L 2.488281 10.464844 C 2.289062 10.664062 2.289062 10.988281 2.488281 11.191406 L 11.296875 19.996094 C 11.535156 20.238281 11.9375 20.183594 12.105469 19.886719 L 21.347656 3.703125 C 21.484375 3.457031 21.40625 3.148438 21.164062 3.003906 L 20.234375 2.449219 C 20.160156 2.402344 20.078125 2.378906 19.992188 2.375 Z M 19.992188 2.375 "/>
<path style=" stroke:none;fill-rule:nonzero;fill:rgb(87.843138%,87.843138%,87.843138%);fill-opacity:1;" d="M 11.410156 12.09375 C 8.664062 12.09375 6.449219 14.308594 6.449219 17.054688 C 6.449219 19.804688 8.664062 22.019531 11.410156 22.019531 C 14.160156 22.019531 16.371094 19.804688 16.371094 17.054688 C 16.371094 14.308594 14.160156 12.09375 11.410156 12.09375 Z M 11.410156 13.085938 C 13.609375 13.085938 15.378906 14.855469 15.378906 17.054688 C 15.378906 19.253906 13.609375 21.027344 11.410156 21.027344 C 9.210938 21.027344 7.441406 19.253906 7.441406 17.054688 C 7.441406 14.855469 9.210938 13.085938 11.410156 13.085938 Z M 11.410156 13.085938 "/>
</g>
</svg>
